!!!COM: Music21
!!!OTL: Rumba dos Anaquiños
!!!OMV: pezas_rumbas_rumba-dos-anaquinos_rumba-dos-anaquinos-partitura.musicxml
**kern
*I"Gaita
*I'Bag
*clefG^2
*k[]
*M2/4
*MM114
=1
!LO:TX:a:t=[quarter]=114
8r
8cc
8eeL
8ggJ
=||
8.cccL
[16ggJk
4gg_
=
8ggL]
8ccJ
8eeL
8aaJ
=
8.ggL
[16ffJk
4ff_
=
4.ff]
16ffLL
16eeJJ
=
8.ggL
[16ffJk
8ffL]
16ffL
16eeJJ
=
8.ggL
[16ffJk
8ffL]
16ffL
16eeJJ
=
8.aaL
[16ggJk
4gg_
!!linebreak:original
=
8ggL]
8ccJ
8eeL
8ggJ
=
8.cccL
[16ggJk
4gg_
=
8ggL]
16ccL
16eeJJ
16aaLL
16gg
16ff
16eeJJ
=
8.ggL
[16ffJk
4ff_
=
4.ff]
16ffLL
16eeJJ
=
8.ggL
[16ffJk
8ffL]
16ffL
16eeJJ
=
8.ggL
[16ffJk
8ffL]
16bbL
16ggJJ
=
[2ccc
!!linebreak:original
=
8cccL]
8ccJ
8eeL
8ggJ
=||
8.cccL
[16ggJk
4gg_
=
8ggL]
8ccJ
8eeL
8aaJ
=
8.ggL
[16ffJk
4ff_
=
4.ff]
16ffLL
16eeJJ
=
8.ggL
[16ffJk
8ffL]
16ffL
16eeJJ
=
8.ggL
[16ffJk
8ffL]
16ffL
16eeJJ
=
8.aaL
[16ggJk
4gg_
!!linebreak:original
=
8ggL]
8ccJ
8eeL
8ggJ
=
8.cccL
[16ggJk
4gg_
=
8ggL]
16ccL
16eeJJ
16aaLL
16gg
16ff
16eeJJ
=
8.ggL
[16ffJk
4ff_
=
4.ff]
16ffLL
16eeJJ
=
8.ggL
[16ffJk
8ffL]
16ffL
16eeJJ
=
8.ggL
[16ffJk
8ffL]
16bbL
16ggJJ
=
4ccc
8ggL
8eeJ
!!linebreak:original
=||
*k[b-e-a-]
8ccL
8ddJ
8ee-L
8ffJ
=||
8.ggL
[16ggJk
8ggL]
8ff#XJ
=
8.ggL
[16ggJk
8ggL]
8ff#XJ
=
8ggL
8aa-J
8ggL
8ee-J
=
2cc
=
8.ggL
[16ggJk
8ggL]
8ff#XJ
!!linebreak:original
=
8.ggL
[16ggJk
8ggL]
8ff#XJ
=
8ggL
8aa-J
8ggL
8ffJ
=
4dd
16bnLL
16cc
16dd
16ee-JJ
=
8.ffL
[16ffJk
8ffL]
8ee-J
=
8ee-L
8ddJ
8ccL
8ddJ
=
8.ccL
[16bnJk
4b_
=
4.b_
16bLL]
16ccJJ
!!linebreak:original
=
8.ffL
[16ggJk
8ggL]
[8aa-J
=
8aa-L]
8ggJ
8ffL
8ggJ
=
8.ffL
[16ee-Jk
4ee-_
=
2ee-]
=
8.ggL
[16ggJk
8ggL]
8ff#XJ
=
8.ggL
[16ggJk
8ggL]
8ff#XJ
=
8ggL
8aa-J
8ggL
8ee-J
=
[4cc
16ccLL]
16cc
16ee-
16ggJJ
!!linebreak:original
=
8.bb-L
[16aa-Jk
8aa-L]
8ggJ
=
4.bb-
8gg
=
8.cccL
[16aa-Jk
8aa-L]
[8ffJ
=
8ffL]
8aa-J
8aa-L
8ffJ
=
8.ggL
[16ee-Jk
8ee-L]
8ccJ
=
8.ggL
[16ggJk
8ggL]
8ee-J
=
8.ffL
[16ddJk
8ddL]
[8bnJ
=
4.b]
16bnLL
16ccJJ
!!linebreak:original
=
4.dd
8ee-
=
8.ffL
[16ee-Jk
8ee-L]
8ddJ
=
[2een
=
2ee]
=||
*k[]
8.ggL
[16ggJk
8ggL]
8ggJ
=
8.ggL
[16aaJk
8aaL]
8ffJ
=
8.ggL
[16eeJk
4ee_
=
4ee_
16eeLL]
16ee
16ff
16ggJJ
=
4.aa
8gg
!!linebreak:original
=
8.ggL
[16ffJk
8ffL]
8ggJ
=
[2ff
=
2ff]
=
8.ffL
[16ffJk
8ffL]
8ffJ
=
8.ffL
[16ggJk
8ggL]
8eeJ
=
8.ffL
[16ddJk
4dd_
=
4.dd]
8ff
=
8.bbL
[16aaJk
8aaL]
8ggJ
=
4aa
4ff
=
8ggL
[8eeJ
4ee_
=
2ee]
!!pagebreak:original
=||
8.ggL
[16ggJk
8ggL]
8ggJ
=
8.ggL
[16aaJk
8aaL]
8ffJ
=
8.ggL
[16eeJk
4ee_
=
4ee_
16eeLL]
16ee
16ff
16ggJJ
=
4.aa
8gg
!!linebreak:original
=
8.ggL
[16ffJk
8ffL]
8ggJ
=
[2ff
=
2ff]
=
8.ffL
[16ffJk
8ffL]
8ffJ
=
8.ffL
[16ggJk
8ggL]
8eeJ
=
8.ffL
[16ddJk
4dd_
=
4.dd]
8ff
=
8.bbL
[16aaJk
8aaL]
8ggJ
=
4aa
4ff
!!linebreak:original
=
4aa
8ffL
16ggL
16ffJJ
=
2ee
==
*-
